symbolic/16x16/panel/btsync-gui-6.svg

<svg xmlns="http://www.w3.org/2000/svg" width="16" height="16" version="1.1">
 <defs>
  <style id="current-color-scheme" type="text/css">
   .ColorScheme-Text { color:#323a41; } .ColorScheme-Highlight { color:#4285f4; } .ColorScheme-NeutralText { color:#ff9800; } .ColorScheme-PositiveText { color:#4caf50; } .ColorScheme-NegativeText { color:#f44336; }
  </style>
 </defs>
 <path style="fill:currentColor" class="ColorScheme-Text" d="M 14.062177,4.4999997 C 12.129303,1.1521623 7.8478379,0.00494713 4.5,1.9378221 1.1521623,3.870697 0.00494684,8.1521628 1.9378219,11.5 c 1.9328756,3.347837 6.2143408,4.495053 9.5621791,2.562177 3.347837,-1.932874 4.495052,-6.2143393 2.562176,-9.5621773 z M 12.330127,5.5 c 1.209501,2.0949178 0.731016,4.70155 -1.013907,6.243863 L 11.866025,12.696151 8.2679493,12.464102 9.866025,9.2320508 10.274228,9.9390786 C 11.074684,8.9999002 11.250332,7.6297394 10.598077,6.5000001 10.240233,5.8827104 9.674093,5.4131719 9.0012728,5.1756614 L 9.0005452,3.1079949 C 10.401297,3.3927441 11.613202,4.2633889 12.330127,5.5 Z M 7.7320508,3.5358982 6.1339747,6.7679491 5.7257711,6.0609206 C 4.9253146,7.0000988 4.7496686,8.3702603 5.4019235,9.5000006 5.7597665,10.117289 6.3259072,10.586828 6.9987274,10.82434 l 7.279e-4,2.067665 C 5.5987029,12.607256 4.3868249,11.736595 3.6698731,10.5 2.4603706,8.4050819 2.9388568,5.7984503 4.6837786,4.2561373 L 4.1339748,3.3038476 7.7320508,3.5358982 Z"/>
</svg>

<svg xmlns="http://www.w3.org/2000/svg" width="16" height="16"><defs><style id="current-color-scheme" type="text/css"></style></defs><path style="fill:currentColor;color:#323a41" d="M14.062 4.5a7 7 0 1 0-12.124 7 7 7 0 0 0 12.124-7zm-1.732 1a5.002 5.002 0 0 1-1.014 6.244l.55.952-3.598-.232 1.598-3.232.408.707c.8-.94.976-2.31.324-3.439a3 3 0 0 0-1.597-1.324V3.108A5 5 0 0 1 12.33 5.5zM7.732 3.536 6.134 6.768l-.408-.707A2.99 2.99 0 0 0 5.402 9.5a3 3 0 0 0 1.597 1.324v2.068A5 5 0 0 1 3.67 10.5a5.002 5.002 0 0 1 1.015-6.244l-.55-.952 3.598.232z"/></svg>
